X:1
T:Where griping grief
T:Richard Edwards (1524-1566)
T:Where griping grief
T:Public Domain
T:Public Domain
T:Public Domain
T:Public Domain
C:Richard Edwards (1524-1566)
Z:Public Domain
%%score [ 1 2 3 4 ]
L:1/8
M:3/2
K:C
V:1 treble nm="P1"
V:2 treble nm="P2"
V:3 alto nm="P3"
V:4 bass nm="P4"
V:1
 x12 |[M:3/2] A4 d4 B4 | (^c6 d2) e4 | f4 d8 | ^c8 z4 | =c4 B4 A4 | ^G8 =g4 | (f6 e2) d4 | ^c8 z4 | %9
w: |The Gods by|Mu- * sic|have their|praise,|the soul the|there- in|doth _ the|joy;|
w: |Where gri- ping|grief _ the|heart would|wound,|and dole- ful|dumps the|mind _ op-|press,|
w: |In joy it|makes _ our|mirth a-|bound,|in grief it|cheers our|hea- * vy|sprights,|
 A4 d4 B4 | (^c6 d2) e4 | f4 d8 | ^c8 z4 | f4 e4 d4 | c8 A4 | _B4 (A6 G2) | F8 z4 | c4 B4 A4 | %18
w: for as the|Ro- * man|po- ets|say,|in seas whom|pi- rates|would de- *|stroy,|a dol- phin|
w: there mu- sic|with _ her|sil- ver|sound|is wont with|speed to|give re- *|dress;|of trou- bled|
w: the care- ful|head _ re-|lief hath|found,|by mu- sic's|plea- sant|sweet de- *|lights,|our sen- ses,|
 G8 g4 | f6 e2 d4 | ^c8 a4 | g8 f4 | e8 d4 | d8 ^c4 | d12 |] %25
w: sav'd from|death most _|sharp, A-|ri- on|play- ing|on his|harp.|
w: minds, for|e- ve- ry|sore, sweet|Mu- sic|hath a|salve in|store.|
w: what should|I say _|more, are|sub- ject|un- to|mu- sic's|law.|
V:2
 x12 |[M:3/2] E4 A4 ^G4 | A8 A4 | A8 A4 | A8 z4 | E4 G4 E4 | E8 E4 | F4 A8 | A8 z4 | E4 A4 ^G4 | %10
w: |The Gods by|Mu- sic|have their|praise,|the soul the|there- in|doth the|joy;|for as the|
w: |Where gri- ping|grief the|heart would|wound,|and dole- ful|dumps the|mind op-|press,|there mu- sic|
w: |In joy it|makes our|mirth a-|bound,|in grief it|cheers our|hea- vy|sprights,|the care- ful|
 A8 A4 | A8 A4 | A8 z4 | A4 c4 A4 | (A6 G2) F4 | G4 E8 | D8 z4 | E4 G4 E4 | E8 E4 | F4 A8 | A8 f4 | %21
w: Ro- man|po- ets|say,|in seas whom|pi- * rates|would de-|stroy,|a dol- phin|sav'd from|death most|sharp, A-|
w: with her|sil- ver|sound|is wont with|speed * to|give re-|dress;|of trou- bled|minds, for|ev'- ry|sore, sweet|
w: head re-|lief hath|found,|by mu- sic's|plea- * sant|sweet de-|lights,|our sen- ses,|what should|I say|more, are|
 e8 d4 | c8 A4 | _B4 (A6 G2) | F12 |] %25
w: ri- on|play- ing|on his _|harp.|
w: Mu- sic|hath a|salve in _|store.|
w: sub- ject|un- to|mu- sic's _|law.|
V:3
 x12 |[M:3/2][K:treble] C4 F4 E4 | E8 ^C4 | D4 F8 | E8 z4 | A,4 B,4 C4 | B,8 C4 | A,8 F4 | E8 z4 | %9
w: |The Gods by|Mu- sic|have their|praise,|the soul the|there- in|doth the|joy;|
w: |Where gri- ping|grief the|heart would|wound,|and dole- ful|dumps the|mind op-|press,|
w: |In joy it|makes our|mirth a-|bound,|in grief it|cheers our|hea- vy|sprights,|
 C4 F4 E4 | E8 ^C4 | D8 F4 | E8 z4 | D4 G4 F4 | E8 D4 | (D4 ^C4) A,4 | A,8 z4 | A,4 B,4 C4 | %18
w: for as the|Ro- man|po- ets|say,|in seas whom|pi- rates|would _ de-|stroy,|a dol- phin|
w: there mu- sic|with her|sil- ver|sound|is wont with|speed to|give _ re-|dress;|of trou- bled|
w: the care- ful|head re-|lief hath|found,|by mu- sic's|plea- sant|sweet _ de-|lights,|our sen- ses,|
 B,8 C4 | A,4 A,4 F4 | E8 A4 | c8 A4 | A8 F4 | G4 E8 | D12 |] %25
w: sav'd from|death most _|sharp, A-|ri- on|play- ing|on his|harp.|
w: minds, for|e- ve- ry|sore, sweet|Mu- sic|hath a|salve in|store.|
w: what should|I say _|more, are|sub- ject|un- to|mu- sic's|law.|
V:4
 x12 |[M:3/2] A,4 D,4 E,4 | A,8 A,4 | D,8 D,4 | A,8 z4 | A,4 G,4 A,4 | D,8 C,4 | D,8 D,4 | A,8 z4 | %9
w: |The Gods by|Mu- sic|have their|praise,|the soul the|there- in|doth the|joy;|
w: |Where gri- ping|grief the|heart would|wound,|and dole- ful|dumps the|mind op-|press,|
w: |In joy it|makes our|mirth a-|bound,|in grief it|cheers our|hea- vy|sprights,|
 A,4 D,4 E,4 | A,8 A,4 | D,8 D,4 | A,8 z4 | D4 C4 D4 | A,8 D4 | G,4 A,8 | D,8 z4 | A,4 G,4 A,4 | %18
w: for as the|Ro- man|po- ets|say,|in seas whom|pi- rates|would de-|stroy,|a dol- phin|
w: there mu- sic|with her|sil- ver|sound|is wont with|speed to|give re-|dress;|of trou- bled|
w: the care- ful|head re-|lief hath|found,|by mu- sic's|plea- sant|sweet de-|lights,|our sen- ses,|
 E,8 C,4 | D,8 D,4 | A,8 F,4 | %21
w: sav'd from|death most|sharp, A-|
w: minds, for|ev'- ry|sore, sweet|
w: what should|I say|more, are|
"^From Romeo and Juliet, Shakespeare, Act IV Scene 5Peter: Then have at you with my wit! I will dry-beat you with an iron wit, and put up my iron dagger.—Answer me like men:   \"When griping grief the heart doth wound,  And doleful dumps the mind oppress,Then music with her silver sound\"—   why \"silver sound'? why \"music with her silver sound'?— What say you, Simon Catling?   Musician: Marry, sir, because silver hath a sweet sound. Peter: Pretty!—What say you, Hugh Rebeck?   Musician: I say \"silver sound\" because musicians sound for silver.  Peter: Pretty too!—What say you, James Soundpost?   Musician: Faith, I know not what to say.   Peter: O, I cry you mercy; you are the singer: I will say for you. It is \"music with her silver sound\"because musicians have no gold for sounding:—  \"Then music with her silver sound With speedy help doth lend redress.\"" C8 D4 | %22
w: ri- on|
w: Mu- sic|
w: sub- ject|
 A,8 D4 | G,4 A,8 | D,12 |] %25
w: play- ing|on his|harp.|
w: hath a|salve in|store.|
w: un- to|mu- sic's|law.|

